communes/2920.svg

<?xml version="1.0" encoding="UTF-8" standalone="no"?>
<svg
   xmlns:dc="http://purl.org/dc/elements/1.1/"
   xmlns:cc="http://creativecommons.org/ns#"
   xmlns:rdf="http://www.w3.org/1999/02/22-rdf-syntax-ns#"
   xmlns:svg="http://www.w3.org/2000/svg"
   xmlns="http://www.w3.org/2000/svg"
   xmlns:sodipodi="http://sodipodi.sourceforge.net/DTD/sodipodi-0.dtd"
   xmlns:inkscape="http://www.inkscape.org/namespaces/inkscape"
   version="1.0"
   width="648.04279"
   height="800.01038"
   id="svg2"
   sodipodi:docname="2920.svg">
  <metadata
     id="metadata36">
    <rdf:RDF>
      <cc:Work
         rdf:about="">
        <dc:format>image/svg+xml</dc:format>
        <dc:type
           rdf:resource="http://purl.org/dc/dcmitype/StillImage" />
      </cc:Work>
    </rdf:RDF>
  </metadata>
  <sodipodi:namedview
     pagecolor="#ffffff"
     bordercolor="#666666"
     borderopacity="1"
     objecttolerance="10"
     gridtolerance="10"
     guidetolerance="10"
     inkscape:pageopacity="0"
     inkscape:pageshadow="2"
     inkscape:window-width="640"
     inkscape:window-height="480"
     id="namedview34" />
  <defs
     id="defs4">
    <linearGradient
       id="linearGradient4907">
      <stop
         id="stop4921"
         style="stop-color:#000000;stop-opacity:1"
         offset="0" />
      <stop
         id="stop4927"
         style="stop-color:#dd0000;stop-opacity:1"
         offset="1" />
      <stop
         id="stop4925"
         style="stop-color:#000000;stop-opacity:1"
         offset="1" />
    </linearGradient>
    <linearGradient
       id="linearGradient4889">
      <stop
         id="stop5015"
         style="stop-color:#d70000;stop-opacity:1"
         offset="0" />
      <stop
         id="stop5017"
         style="stop-color:#540000;stop-opacity:1"
         offset="0.484375" />
      <stop
         id="stop5019"
         style="stop-color:#3d0000;stop-opacity:0.17419355"
         offset="0.7265625" />
      <stop
         id="stop4905"
         style="stop-color:#df0000;stop-opacity:0.02745098"
         offset="0.96875" />
      <stop
         id="stop4893"
         style="stop-color:#ff0000;stop-opacity:0"
         offset="1" />
    </linearGradient>
    <linearGradient
       id="linearGradient3415">
      <stop
         id="stop3417"
         style="stop-color:#000000;stop-opacity:0"
         offset="0" />
      <stop
         id="stop3423"
         style="stop-color:#000000;stop-opacity:0"
         offset="0.5" />
      <stop
         id="stop3419"
         style="stop-color:#000000;stop-opacity:0"
         offset="1" />
    </linearGradient>
  </defs>
  <path
     d="M 324.00677,797.01038 C 146.77493,797.01038 5.9702564,653.47054 6.0029539,467.55713 L 3,3 L 323.75145,3.7198667"
     id="path3359"
     style="fill:#000000;fill-opacity:1;fill-rule:evenodd;stroke:#000000;stroke-width:6;stroke-linecap:butt;stroke-linejoin:miter;stroke-miterlimit:4;stroke-dasharray:none;stroke-opacity:1" />
  <path
     d="M 323.75145,3.7198667 L 644.5029,4.4397334 L 645.04278,465.87394 C 645.04278,645.22911 501.2386,797.01038 324.00677,797.01038"
     id="path3371"
     style="fill:#00a85b;fill-opacity:1;fill-rule:evenodd;stroke:#000000;stroke-width:6;stroke-linecap:butt;stroke-linejoin:miter;stroke-miterlimit:4;stroke-dasharray:none;stroke-opacity:1" />
  <g
     transform="translate(795.31393,-3.861e-2)"
     id="g3395">
    <g
       transform="translate(-113.41485,147.60139)"
       id="g3330"
       style="fill:#ffffff;fill-opacity:1;stroke:none">
      <path
         d="M -517.34334,281.22915 C -523.6815,281.36313 -536.14878,277.38998 -541.76353,284.81951 C -547.25443,292.08516 -527.95627,329.93629 -544.54461,315.32494 C -560.86459,300.71399 -602.15188,310.19877 -617.00477,328.10686 C -630.54187,344.83339 -635.02059,369.27766 -624.85371,388.80808 C -617.12168,404.55016 -601.74772,417.14763 -584.40634,420.46873 C -569.87344,422.5007 -575.38631,435.26206 -575.36687,445.66678 C -577.13372,468.16739 -560.68301,489.28765 -540.34243,497.39712 C -519.26735,506.33314 -493.38545,500.57697 -478.11082,483.48572 C -461.61714,466.08284 -461.20878,443.34597 -471.25884,419.27206 C -457.16044,420.36726 -442.01857,419.61254 -432.12797,411.67528 C -411.78216,397.09346 -400.64461,368.37668 -411.65438,344.78518 C -425.89825,315.02604 -460.82188,296.55953 -489.93436,314.82403 C -508.66824,330.96568 -491.36339,291.72644 -495.54507,284.90169 C -499.87725,277.83132 -511.12274,281.09766 -517.34334,281.22915 z M -460.71875,336.45209 C -448.43648,338.52006 -439.35259,350.52313 -437.25179,362.40338 C -434.22969,374.34517 -442.54806,385.85047 -453.9366,389.06301 C -464.81931,393.41523 -477.37807,390.45506 -489.38311,389.85013 C -499.29251,390.93489 -511.14705,405.23739 -504.2498,415.24229 C -495.56867,425.63811 -489.11619,439.89186 -494.47299,453.40584 C -499.28238,468.7244 -518.3389,475.2519 -532.15625,468.04584 C -548.70242,459.89375 -549.70212,436.85129 -542.14726,422.09296 C -532.90177,412.65951 -535.87382,399.68618 -545.30288,391.6785 C -557.20023,386.97726 -570.93367,394.42105 -583.0713,388.7657 C -595.78547,385.28973 -601.91192,370.76203 -598.30285,358.64789 C -596.04795,346.32614 -584.56351,334.86668 -571.36242,337.57094 C -557.36396,339.26927 -546.98124,349.81488 -538.65513,360.29321 C -530.18262,367.96572 -521.28219,366.49173 -510.89866,366.74621 C -500.32721,363.56982 -493.47636,352.22186 -485.64366,346.72804 C -478.54075,341.12195 -473.261,335.47473 -460.71875,336.45209 z"
         id="path2554"
         style="fill:#ffffff;fill-opacity:1;stroke:none;stroke-width:6;stroke-linecap:round;stroke-linejoin:round;stroke-miterlimit:4;stroke-dasharray:none;stroke-opacity:1" />
      <path
         d="M -498.88227,-19.376453 L -537.86759,-19.376453 L -537.94198,278.2576 L -498.88227,278.2576 L -498.88227,-19.376453 z"
         id="path2542"
         style="fill:#ffffff;fill-opacity:1;stroke:none;stroke-width:6;stroke-linecap:round;stroke-linejoin:round;stroke-miterlimit:4;stroke-dasharray:none;stroke-opacity:1" />
      <path
         d="M -395.00981,153.45845 L -443.00196,153.45845 L -443.00196,145.02544 L -395.00981,145.02544 L -395.00981,94.296206 L -426.22567,94.296206 L -426.22567,116.64594 L -435.15676,116.64594 L -435.15676,94.296206 L -459.67363,94.296206 L -459.67363,85.544616 L -435.15676,85.544616 L -435.15676,62.446009 L -426.22567,62.446009 L -426.22567,85.544616 L -395.00981,85.544616 L -395.00981,36.45418 L -443.00196,36.45418 L -443.00196,28.015347 L -395.00981,28.015347 L -395.00981,-18.388012 L -489.22433,-18.388012 L -489.22433,10.850978 C -489.22433,28.177788 -490.5479,40.089968 -492.47311,40.089968 C -494.49457,40.089968 -495.72188,58.499694 -495.72188,88.821604 C -495.72188,119.14352 -494.49457,137.55325 -492.47311,137.55325 C -490.53524,137.55325 -489.22433,150.00689 -489.22433,168.41663 L -489.22433,199.28 L -395.00981,199.28 L -395.00981,153.45845 z"
         id="path2540"
         style="fill:#ffffff;fill-opacity:1;stroke:none;stroke-width:6;stroke-linecap:round;stroke-linejoin:round;stroke-miterlimit:4;stroke-dasharray:none;stroke-opacity:1" />
      <path
         d="M -493.29694,-41.400267 C -498.1546,-56.770902 -500.88649,-61.96237 -518.42675,-61.96237 C -535.96701,-61.96237 -538.59317,-54.347839 -542.32582,-41.400267 C -546.06802,-28.419584 -540.5965,-20.449558 -520.70144,-20.520217 C -500.80633,-20.590877 -488.45089,-26.066373 -493.29694,-41.400267 z"
         id="path2538"
         style="fill:#ffffff;fill-opacity:1;stroke:none;stroke-width:6;stroke-linecap:round;stroke-linejoin:round;stroke-miterlimit:4;stroke-dasharray:none;stroke-opacity:1" />
    </g>
    <g
       transform="translate(-113.41485,147.60139)"
       id="g3361"
       style="fill:#ffffff;fill-opacity:1">
      <path
         d="M -165.04698,260.74559 C -146.11505,230.37054 -120.19999,175.27484 -111.44216,146.78113 C -106.943,132.14302 -104.59679,115.73099 -104.59679,98.896523 C -104.59679,37.911007 -135.69386,2.6129771 -192.42126,-0.79231294 C -242.43839,-3.7948029 -276.90781,11.312737 -294.56182,43.974683 C -303.23723,60.025163 -304.35006,65.458073 -305.50065,97.378163 L -306.78155,132.91336 C -293.33307,120.87873 -280.08824,108.33043 -263.88272,100.05704 C -248.36341,93.466963 -222.16625,96.011263 -208.9986,105.38746 C -175.91426,128.94558 -178.61689,178.73849 -217.17119,255.95735 L -231.36428,284.38414 L -179.78024,284.38414 L -165.04698,260.74559 z"
         id="path2544"
         style="fill:#ffffff;fill-opacity:1;stroke:#000000;stroke-width:6;stroke-linejoin:round;stroke-miterlimit:4;stroke-dasharray:none;stroke-opacity:1" />
      <g
         id="g3336"
         style="fill:#ffffff;fill-opacity:1">
        <path
           d="M -183.93179,482.9309 C -171.82902,475.55066 -163.07477,458.29072 -163.07477,441.80906 C -163.07477,435.12444 -166.11543,419.44523 -169.83181,406.96639 C -177.33989,381.75566 -179.75887,370.84968 -175.87801,357.52785 L -173.10983,342.80047 L -207.40843,342.80047 L -241.54148,342.63495 L -235.87761,357.52785 C -231.3892,368.27013 -231.63478,371.43852 -239.29218,399.54625 C -248.63998,433.85885 -249.5714,449.74459 -242.97846,462.41598 C -230.18231,487.00984 -204.97996,495.76604 -183.93179,482.9309 z"
           id="path2550"
           style="fill:#ffffff;fill-opacity:1;stroke:#000000;stroke-width:6;stroke-linecap:round;stroke-linejoin:round;stroke-miterlimit:4;stroke-dasharray:none;stroke-opacity:1" />
        <path
           d="M -169.57233,338.20045 C -169.57233,335.63651 -170.85767,323.75096 -172.60029,319.16758 C -175.69306,311.03297 -176.50171,310.83415 -206.4935,310.83415 C -234.46271,310.83415 -237.38391,311.41828 -239.06424,317.34697 C -240.07945,320.92904 -241.87885,332.81459 -242.89127,336.37983 C -244.65464,342.58951 -243.15172,342.86212 -207.15219,342.86212 C -176.67149,342.86212 -169.57233,341.9815 -169.57233,338.20045 z"
           id="path2548"
           style="fill:#ffffff;fill-opacity:1;stroke:#000000;stroke-width:6;stroke-linecap:round;stroke-linejoin:round;stroke-miterlimit:4;stroke-dasharray:none;stroke-opacity:1" />
        <path
           d="M -179.31866,299.00363 L -179.17825,284.54383 L -206.79285,284.54383 L -232.02043,284.40342 L -232.16084,298.86322 L -232.16084,310.23394 L -206.93326,310.37435 L -179.31866,310.37435 L -179.31866,299.00363 z"
           id="path2546"
           style="fill:#ffffff;fill-opacity:1;stroke:#000000;stroke-width:6;stroke-linecap:round;stroke-linejoin:round;stroke-miterlimit:4;stroke-dasharray:none;stroke-opacity:1" />
        <path
           d="M -187.4406,-55.11299 L -156.65161,-55.11299 L -156.65161,-77.808589 L -187.4406,-77.808589 L -187.4406,-109.96274 L -211.80642,-109.96274 L -211.80642,-77.808589 L -244.29419,-77.808589 L -244.29419,-55.11299 L -211.80642,-55.11299 L -211.80642,-24.249613 L -187.4406,-24.249613 L -187.4406,-55.11299 z"
           id="path2534"
           style="fill:#ffffff;fill-opacity:1;stroke:#000000;stroke-width:6;stroke-linecap:round;stroke-linejoin:round;stroke-miterlimit:4;stroke-dasharray:none;stroke-opacity:1" />
      </g>
    </g>
  </g>
  <path
     d="M 324.02139,5.8559745 L 324.02139,794.15441"
     id="path3353"
     style="fill:none;fill-rule:evenodd;stroke:#000000;stroke-width:6;stroke-linecap:butt;stroke-linejoin:miter;stroke-miterlimit:4;stroke-dasharray:none;stroke-opacity:1" />
</svg>

<?xml version="1.0" encoding="UTF-8"?>
<svg version="1.0" viewBox="0 0 648.04 800.01" xmlns="http://www.w3.org/2000/svg" xmlns:cc="http://creativecommons.org/ns#" xmlns:dc="http://purl.org/dc/elements/1.1/" xmlns:rdf="http://www.w3.org/1999/02/22-rdf-syntax-ns#">
<metadata>
<rdf:RDF>
<cc:Work rdf:about="">
<dc:format>image/svg+xml</dc:format>
<dc:type rdf:resource="http://purl.org/dc/dcmitype/StillImage"/>
</cc:Work>
</rdf:RDF>
</metadata>
<path d="m324.01 797.01c-177.23 0-318.04-143.54-318-329.45l-3.003-464.56 320.75 0.71987" fill-rule="evenodd" stroke="#000" stroke-width="6"/>
<path d="m323.75 3.7199 320.75 0.71987 0.53988 461.43c0 179.36-143.8 331.14-321.04 331.14" fill="#00a85b" fill-rule="evenodd" stroke="#000" stroke-width="6"/>
<g transform="translate(795.31 -.03861)">
<g transform="translate(-113.41 147.6)" fill="#fff">
<path d="m-517.34 281.23c-6.3382 0.13398-18.805-3.8392-24.42 3.5904-5.4909 7.2656 13.807 45.117-2.7811 30.505-16.32-14.611-57.607-5.1262-72.46 12.782-13.537 16.727-18.016 41.171-7.8489 60.701 7.732 15.742 23.106 28.34 40.447 31.661 14.533 2.032 9.02 14.793 9.0395 25.198-1.7668 22.501 14.684 43.621 35.024 51.73 21.075 8.936 46.957 3.1798 62.232-13.911 16.494-17.403 16.902-40.14 6.852-64.214 14.098 1.0952 29.24 0.34048 39.131-7.5968 20.346-14.582 31.483-43.299 20.474-66.89-14.244-29.759-49.168-48.226-78.28-29.961-18.734 16.142-1.429-23.098-5.6107-29.922-4.3322-7.0704-15.578-3.804-21.798-3.6725zm56.625 55.223c12.282 2.068 21.366 14.071 23.467 25.951 3.0221 11.942-5.2963 23.447-16.685 26.66-10.883 4.3522-23.441 1.392-35.447 0.78712-9.9094 1.0848-21.764 15.387-14.867 25.392 8.6811 10.396 15.134 24.65 9.7768 38.164-4.8094 15.319-23.866 21.846-37.683 14.64-16.546-8.1521-17.546-31.195-9.991-45.953 9.2455-9.4334 6.2734-22.407-3.1556-30.414-11.897-4.7012-25.631 2.7426-37.768-2.9128-12.714-3.476-18.841-18.004-15.232-30.118 2.2549-12.322 13.739-23.781 26.94-21.077 13.998 1.6983 24.381 12.244 32.707 22.722 8.4725 7.6725 17.373 6.1985 27.756 6.453 10.571-3.1764 17.422-14.524 25.255-20.018 7.1029-5.6061 12.383-11.253 24.925-10.276z"/>
<path d="m-498.88-19.376h-38.985l-0.07439 297.63h39.06v-297.63z"/>
<path d="m-395.01 153.46h-47.992v-8.433h47.992v-50.729h-31.216v22.35h-8.9311v-22.35h-24.517v-8.7516h24.517v-23.099h8.9311v23.099h31.216v-49.09h-47.992v-8.4388h47.992v-46.403h-94.215v29.239c0 17.327-1.3236 29.239-3.2488 29.239-2.0215 0-3.2488 18.41-3.2488 48.732 0 30.322 1.2273 48.732 3.2488 48.732 1.9379 0 3.2488 12.454 3.2488 30.863v30.863h94.215v-45.822z"/>
<path d="m-493.3-41.4c-4.8577-15.371-7.5896-20.562-25.13-20.562s-20.166 7.6145-23.899 20.562c-3.7422 12.981 1.7293 20.951 21.624 20.88 19.895-0.07066 32.251-5.5462 27.404-20.88z"/>
<path d="m-165.05 260.75c18.932-30.375 44.847-85.471 53.605-113.96 4.4992-14.638 6.8454-31.05 6.8454-47.885 0-60.986-31.097-96.284-87.824-99.689-50.017-3.0025-84.487 12.105-102.14 44.767-8.6754 16.05-9.7882 21.483-10.939 53.403l-1.2809 35.535c13.448-12.035 26.693-24.583 42.899-32.856 15.519-6.5901 41.716-4.0458 54.884 5.3304 33.084 23.558 30.382 73.351-8.1726 150.57l-14.193 28.427h51.584l14.733-23.639z" stroke="#000" stroke-linejoin="round" stroke-width="6"/>
<g stroke="#000" stroke-linecap="round" stroke-linejoin="round" stroke-width="6">
<path d="m-183.93 482.93c12.103-7.3802 20.857-24.64 20.857-41.122 0-6.6846-3.0407-22.364-6.757-34.843-7.5081-25.211-9.9271-36.117-6.0462-49.439l2.7682-14.727h-34.299l-34.133-0.16552 5.6639 14.893c4.4884 10.742 4.2428 13.911-3.4146 42.018-9.3478 34.313-10.279 50.198-3.6863 62.87 12.796 24.594 37.998 33.35 59.047 20.515z"/>
<path d="m-169.57 338.2c0-2.5639-1.2853-14.449-3.028-19.033-3.0928-8.1346-3.9014-8.3334-33.893-8.3334-27.969 0-30.89 0.58413-32.571 6.5128-1.0152 3.5821-2.8146 15.468-3.827 19.033-1.7634 6.2097-0.26045 6.4823 35.739 6.4823 30.481 0 37.58-0.88062 37.58-4.6617z"/>
<path d="m-179.32 299 0.14041-14.46h-27.615l-25.228-0.14041-0.14041 14.46v11.371l25.228 0.14041h27.615v-11.371z"/>
<path d="m-187.44-55.113h30.789v-22.696h-30.789v-32.154h-24.366v32.154h-32.488v22.696h32.488v30.863h24.366v-30.863z"/>
</g>
</g>
</g>
<path d="m324.02 5.856v788.3" fill="none" stroke="#000" stroke-width="6"/>
</svg>
